usr/share/icons/biglinux-icons-material/24/actions/transform-rotate.svg

<svg xmlns="http://www.w3.org/2000/svg" viewBox="0 0 24 24"><path d="M4 4v16h7v-1H5V5h8v7h1V8.139c1.726.443 3 1.992 3 3.861v1h-5v7h8v-7h-2v-1a4.989 4.989 0 0 0-4-4.9V4H4zm9 10h6v5h-6v-5z" style="fill:currentColor;fill-opacity:1;stroke:none;color:#dedede"/></svg>

<svg xmlns="http://www.w3.org/2000/svg" viewBox="0 0 24 24">
  <defs id="defs3051">
    <style type="text/css" id="current-color-scheme">
      .ColorScheme-Text {
        color:#363636;
      }
      </style>
  </defs>
 <path style="fill:currentColor;fill-opacity:1;stroke:none" 
     d="M 4 4 L 4 20 L 5 20 L 11 20 L 11 19 L 5 19 L 5 5 L 13 5 L 13 7 L 13 8 L 13 12 L 14 12 L 14 8.1386719 C 15.726297 8.5823639 17 10.13145 17 12 L 17 13 L 12 13 L 12 14 L 12 20 L 13 20 L 20 20 L 20 19 L 20 14 L 20 13 L 18 13 L 18 12 C 18 9.572831 16.287361 7.5606044 14 7.0996094 L 14 4 L 5 4 L 4 4 z M 13 14 L 19 14 L 19 19 L 13 19 L 13 14 z "
     class="ColorScheme-Text"
     />
</svg>
